X:386
T:Lady Gordon of Gordonstown
R:Reel
O:Scotland
S:Jerry Holland's collection of fiddle tunes
B:Jerry Holland's collection of fiddle tunes
Z:Transcription, chords:Mike Long
M:C|
L:1/8
K:F
F|"C"~E2 CD (EF)GE|"Bb"DB,FB, GB,FB,|"C"~E2 (CD) EFGE|"Bb"DB,FD "C"ECCF|\
"C"~E2 CD (EF)GE|
"Bb"DB,FB, DEFD|"C"Ccec "Bb"dBBa|"Gm"~gfed "C"ecc|]\
a|\
"C"~g2 ec Gceg|"Bb"fBdB FBdf|
"C"~g2 ec Gceg|"Bb"fdge "C"c/c/c ca|\
"C"gcec Gceg|"Bb"fBdB FBda|"Gm"gefd cd~cG|"Bb"FBFD "C"ECC|]
